svg/arrow/align_arrow_right_line.svg

<?xml version="1.0" encoding="UTF-8"?>
<svg width="24px" height="24px" viewBox="0 0 24 24" version="1.1" xmlns="http://www.w3.org/2000/svg" xmlns:xlink="http://www.w3.org/1999/xlink">
    <title>align_arrow_right_line</title>
    <g id="Icon" stroke="none" stroke-width="1" fill="none" fill-rule="evenodd">
        <g id="Arrow" transform="translate(-96.000000, -98.000000)" fill-rule="nonzero">
            <g id="align_arrow_right_line" transform="translate(96.000000, 98.000000)">
                <path d="M24,0 L24,24 L0,24 L0,0 L24,0 Z M12.5935,23.2578 L12.5819,23.2595 L12.5109,23.295 L12.4919,23.2987 L12.4767,23.295 L12.4057,23.2595 C12.3958,23.2564 12.387,23.259 12.3821,23.2649 L12.378,23.2758 L12.3609,23.7031 L12.3659,23.7235 L12.3769,23.7357 L12.4805,23.8097 L12.4953,23.8136 L12.5071,23.8097 L12.6107,23.7357 L12.6233,23.7197 L12.6267,23.7031 L12.6096,23.2758 C12.6076,23.2657 12.601,23.2593 12.5935,23.2578 Z M12.8584,23.1453 L12.8445,23.1473 L12.6598,23.2397 L12.6499,23.2499 L12.6472,23.2611 L12.6651,23.6906 L12.6699,23.7034 L12.6784,23.7105 L12.8793,23.8032 C12.8914,23.8069 12.9022,23.803 12.9078,23.7952 L12.9118,23.7812 L12.8777,23.1665 C12.8753,23.1546 12.8674,23.147 12.8584,23.1453 Z M12.143,23.1473 C12.1332,23.1424 12.1222,23.1453 12.1156,23.1526 L12.1099,23.1665 L12.0758,23.7812 C12.0751,23.7927 12.0828,23.8019 12.0926,23.8046 L12.1083,23.8032 L12.3092,23.7105 L12.3186,23.7024 L12.3225,23.6906 L12.3404,23.2611 L12.3372,23.2485 L12.3278,23.2397 L12.143,23.1473 Z" id="MingCute"></path>
                <path d="M15.2974,7.05048 C14.9069,7.44101 14.9069,8.07417 15.2974,8.46469 L17.8327,10.9999 L9,10.9999 C8.44772,10.9999 8,11.4477 8,11.9999 C8,12.5522 8.44771,12.9999 9,12.9999 L17.8332,12.9999 L15.2974,15.5358 C14.9069,15.9263 14.9069,16.5595 15.2974,16.95 C15.6879,17.3405 16.3211,17.3405 16.7116,16.95 L20.9543,12.7073 C21.3448,12.3168 21.3448,11.6837 20.9543,11.2931 L16.7116,7.05048 C16.3211,6.65996 15.6879,6.65996 15.2974,7.05048 Z M3,19 C3,19.5523 3.44772,20 4,20 C4.55228,20 5,19.5523 5,19 L5,5 C5,4.44771 4.55229,4 4,4 C3.44772,4 3,4.44771 3,5 L3,19 Z" id="形状" fill="#09244B"></path>
            </g>
        </g>
    </g>
</svg>

<svg xmlns="http://www.w3.org/2000/svg" width="24" height="24"><g fill="none" fill-rule="nonzero"><path d="M24 0v24H0V0h24ZM12.594 23.258l-.012.002-.071.035-.02.004-.014-.004-.071-.036c-.01-.003-.019 0-.024.006l-.004.01-.017.428.005.02.01.013.104.074.015.004.012-.004.104-.074.012-.016.004-.017-.017-.427c-.002-.01-.009-.017-.016-.018Zm.264-.113-.014.002-.184.093-.01.01-.003.011.018.43.005.012.008.008.201.092c.012.004.023 0 .029-.008l.004-.014-.034-.614c-.003-.012-.01-.02-.02-.022Zm-.715.002a.023.023 0 0 0-.027.006l-.006.014-.034.614c0 .012.007.02.017.024l.015-.002.201-.093.01-.008.003-.011.018-.43-.003-.012-.01-.01-.184-.092Z"/><path fill="#09244B" d="M15.297 7.05a1 1 0 0 0 0 1.415L17.833 11H9a1 1 0 0 0 0 2h8.833l-2.536 2.536a1 1 0 0 0 1.415 1.414l4.242-4.243a1 1 0 0 0 0-1.414L16.712 7.05a1 1 0 0 0-1.415 0ZM3 19a1 1 0 1 0 2 0V5a1 1 0 1 0-2 0v14Z"/></g></svg>
